components/icon/svg/24/seat_handicapped.svg

<?xml version="1.0" encoding="UTF-8"?>
<svg width="24px" height="24px" viewBox="0 0 24 24" version="1.1" xmlns="http://www.w3.org/2000/svg" xmlns:xlink="http://www.w3.org/1999/xlink">
    <!-- Generator: Sketch 64 (93537) - https://sketch.com -->
    <title>ic-db_seat_handicapped_24</title>
    <desc>Created with Sketch.</desc>
    <g id="Symbols" stroke="none" stroke-width="1" fill="none" fill-rule="evenodd">
        <g id="24dp-Icon/Seat/Handicapped" fill="#282D37">
            <path d="M4,16.1487 C4,14.7818 4.4796,13.4149 5.4149,12.3357 C5.6307,12.0959 5.8945,12 6.1583,12 C6.7578,12 7.1655,12.4556 7.1655,13.0072 C7.1655,13.223 7.0935,13.4388 6.9496,13.6307 C6.3501,14.3261 5.9904,15.2374 5.9904,16.1487 C5.9904,18.259 7.669,20 9.7794,20 C11.0503,20 12.2254,19.4101 12.9688,18.4029 C13.1846,18.1151 13.4964,17.9712 13.7842,17.9712 C14.3117,17.9712 14.8153,18.3789 14.8153,18.9784 C14.8153,19.1942 14.7434,19.4101 14.5995,19.5779 C13.4724,21.0887 11.7218,22 9.7794,22 C6.6619,22 4,19.4341 4,16.1487 Z M7.5012,9.0024 C7.5012,8.4508 7.9568,7.9952 8.5084,7.9952 L9.2278,7.9952 C10.3789,7.9952 11.3861,8.6187 11.7218,9.6739 L11.8177,10 L15.247,10 C15.7985,10 16.2542,10.4412 16.2542,10.9928 C16.2542,11.5444 15.7985,12 15.247,12 L12.4172,12 L13.0168,14 L16.518,14 C16.9496,14 17.2854,14.2542 17.4532,14.6619 L19.6355,19.8417 C19.6834,19.9376 19.7074,20.0576 19.7074,20.1775 C19.7074,20.6571 19.3237,21.1607 18.7002,21.1607 C18.2686,21.1607 17.9328,20.9209 17.765,20.5132 L15.8225,16.0048 L12.2734,16.0048 C11.8417,16.0048 11.434,15.717 11.3141,15.2854 L9.8753,10.4173 C9.7794,10.1055 9.6595,9.9856 9.2278,9.9856 L8.5084,9.9856 C7.9568,9.9856 7.5012,9.554 7.5012,9.0024 Z M7.5012,4.0144 C7.5012,2.9113 8.4125,2 9.5156,2 C10.6187,2 11.506,2.9113 11.506,4.0144 C11.506,5.1175 10.6187,6.0048 9.5156,6.0048 C8.4125,6.0048 7.5012,5.1175 7.5012,4.0144 Z" id="🎨-Color"></path>
        </g>
    </g>
</svg>

<svg width="24" height="24" xmlns="http://www.w3.org/2000/svg"><path d="M4 16.149c0-1.367.48-2.734 1.415-3.813A.973.973 0 016.158 12c.6 0 1.007.456 1.007 1.007 0 .216-.072.432-.215.624-.6.695-.96 1.606-.96 2.518C5.99 18.259 7.67 20 9.78 20c1.27 0 2.445-.59 3.189-1.597.216-.288.527-.432.815-.432.528 0 1.031.408 1.031 1.007a.92.92 0 01-.215.6A5.974 5.974 0 019.78 22C6.661 22 4 19.434 4 16.149zm3.501-7.147c0-.551.456-1.007 1.007-1.007h.72c1.15 0 2.158.624 2.494 1.679l.096.326h3.429c.552 0 1.007.441 1.007.993 0 .551-.456 1.007-1.007 1.007h-2.83l.6 2h3.501c.432 0 .767.254.935.662l2.183 5.18a.767.767 0 01.071.335c0 .48-.383.984-1.007.984-.431 0-.767-.24-.935-.648l-1.943-4.508h-3.549a1 1 0 01-.959-.72l-1.439-4.868c-.096-.312-.216-.431-.647-.431h-.72a.993.993 0 01-1.007-.984zm0-4.988C7.501 2.911 8.412 2 9.516 2c1.103 0 1.99.911 1.99 2.014 0 1.103-.887 1.99-1.99 1.99-1.104 0-2.015-.886-2.015-1.99z" fill="#282D37" fill-rule="evenodd"/></svg>
